logo/mev-capital.svg

<svg fill="none" height="65" viewBox="0 0 65 65" width="65" xmlns="http://www.w3.org/2000/svg" xmlns:xlink="http://www.w3.org/1999/xlink"><clipPath id="a"><path d="m5 17h56v32h-56z"/></clipPath><path d="m0 0h65v65h-65z" fill="#fff"/><g clip-path="url(#a)"><path d="m14.2094 26.4991-5.76276-9.1388c-.1409-.2234-.38555-.359-.64813-.359h-2.41192c-.21263 0-.38427.173-.38427.3874v18.9632c0 .2144.17164.3874.38427.3874h2.56178c.21263 0 .38427-.173.38427-.3874v-12.4713c0-.1291.16779-.1782.23568-.0697l5.42328 8.6017c.1512.2389.4983.2389.6481 0l5.4221-8.6017c.0691-.1085.2356-.0594.2356.0697v12.47c0 .2144.1717.3874.3843.3874h2.5618c.2126 0 .3843-.173.3843-.3874v-18.9619c0-.2144-.1717-.3874-.3843-.3874h-2.4106c-.2626 0-.5073.1356-.6482.359l-5.7601 9.1388c-.05.08-.1653.08-.2152 0z" fill="#162125"/><path d="m36.2407 17h-7.7519c-.2127 0-.3843.173-.3843.3873v2.5824c0 .2143.1716.3873.3843.3873h7.7519c.2126 0 .3843-.173.3843-.3873v-2.5824c0-.2143-.1729-.3873-.3843-.3873z" fill="#678dbd"/><path d="m31.5629 28.5482h7.6866c.2127 0 .3843-.173.3843-.3873v-2.5824c0-.2143-.1716-.3873-.3843-.3873h-10.7607c-.2127 0-.3843.173-.3843.3873v10.7735c0 .2143.1716.3873.3843.3873h13.7695c.2127 0 .3843-.173.3843-.3873v-2.5823c0-.2144-.1716-.3874-.3843-.3874h-10.6954c-.0704 0-.1281-.0581-.1281-.1291v-4.5759c0-.071.0564-.1291.1281-.1291z" fill="#162125"/><path d="m55.9564 17.5036-5.2017 14.0194c-.041.1123-.1985.1123-.2395 0l-5.2004-14.0194c-.1128-.3022-.3997-.5036-.7199-.5036h-2.9409c-.2677 0-.4535.2699-.36.5229l7.036 18.9646c.0563.151.1998.2518.3599.2518h3.8926c.1601 0 .3036-.1008.36-.2518l7.0346-18.9646c.0935-.253-.0922-.5229-.3599-.5229h-2.9397c-.3215 0-.6084.2001-.7211.5036z" fill="#162125"/><g fill="#678dbd"><path d="m5.75316 44.2897c.50083-.5164 1.14384-.7746 1.92775-.7746.93633 0 1.65363.3602 2.14805 1.0794l-.84923.6339c-.13577-.1911-.31766-.3486-.5431-.4687-.22544-.12-.47777-.1807-.75572-.1807-.48546 0-.87741.1575-1.17714.4738-.29973.3164-.4496.7179-.4496 1.206 0 .4893.14987.8909.4496 1.2072s.69168.4726 1.17714.4726c.26642 0 .51491-.0646.74291-.1937.22928-.1291.41373-.2892.55463-.4816l.84923.6585c-.49571.7192-1.21172 1.0781-2.14806 1.0781-.78518 0-1.42819-.2582-1.92774-.7747-.50083-.5165-.75188-1.1724-.75188-1.969.00128-.7941.25234-1.4513.75316-1.9665z"/><path d="m13.4333 48.934 2.1571-5.3531h.8018l2.1481 5.3531h-1.1195l-.3433-.8818h-2.1814l-.3433.8818zm3.2689-1.8528-.7109-1.8192-.7109 1.8192z"/><path d="m22.3805 48.934v-5.3531h2.476c.4303 0 .8082.1575 1.1323.4725.324.3164.4854.745.4854 1.2886s-.1627.9736-.4854 1.2899c-.3241.3163-.702.4738-1.1323.4738h-1.4218v1.8283zm1.0542-2.8664h1.2335c.2062 0 .3842-.0671.5303-.2014.1473-.1343.2203-.3086.2203-.5229 0-.2195-.073-.3964-.2165-.5307-.1447-.1342-.3177-.2014-.5188-.2014h-1.2501v1.4564z"/><path d="m30.478 48.934v-5.3531h1.0542v5.3531z"/><path d="m35.5352 43.5809h4.241v.9722h-1.5858v4.3809h-1.0631v-4.3809h-1.5934v-.9722z"/><path d="m42.8568 48.934 2.157-5.3531h.8018l2.1481 5.3531h-1.1195l-.3433-.8818h-2.1814l-.3433.8818zm3.2688-1.8528-.7109-1.8192-.7109 1.8192z"/><path d="m51.8024 48.934v-5.3531h1.0541v4.3809h2.5247v.9722z"/></g></g></svg>

<svg width="65" height="65" viewBox="0 0 65 65" fill="none" xmlns="http://www.w3.org/2000/svg">    <rect width="65" height="65" fill="white"/>    <g clip-path="url(#clip0_1_5)">        <path d="M14.2094 26.4991L8.44664 17.3603C8.30574 17.1369 8.06109 17.0013 7.79851 17.0013H5.38659C5.17396 17.0013 5.00232 17.1743 5.00232 17.3887V36.3519C5.00232 36.5663 5.17396 36.7393 5.38659 36.7393H7.94837C8.161 36.7393 8.33264 36.5663 8.33264 36.3519V23.8806C8.33264 23.7515 8.50043 23.7024 8.56832 23.8109L13.9916 32.4126C14.1428 32.6515 14.4899 32.6515 14.6397 32.4126L20.0618 23.8109C20.1309 23.7024 20.2974 23.7515 20.2974 23.8806V36.3506C20.2974 36.565 20.4691 36.738 20.6817 36.738H23.2435C23.4561 36.738 23.6278 36.565 23.6278 36.3506V17.3887C23.6278 17.1743 23.4561 17.0013 23.2435 17.0013H20.8329C20.5703 17.0013 20.3256 17.1369 20.1847 17.3603L14.4246 26.4991C14.3746 26.5791 14.2593 26.5791 14.2094 26.4991Z"              fill="#162125"/>        <path d="M36.2407 17H28.4888C28.2761 17 28.1045 17.173 28.1045 17.3873V19.9697C28.1045 20.184 28.2761 20.357 28.4888 20.357H36.2407C36.4533 20.357 36.625 20.184 36.625 19.9697V17.3873C36.625 17.173 36.4521 17 36.2407 17Z"              fill="#678DBD"/>        <path d="M31.5629 28.5482H39.2495C39.4622 28.5482 39.6338 28.3752 39.6338 28.1609V25.5785C39.6338 25.3642 39.4622 25.1912 39.2495 25.1912H28.4888C28.2761 25.1912 28.1045 25.3642 28.1045 25.5785V36.352C28.1045 36.5663 28.2761 36.7393 28.4888 36.7393H42.2583C42.471 36.7393 42.6426 36.5663 42.6426 36.352V33.7697C42.6426 33.5553 42.471 33.3823 42.2583 33.3823H31.5629C31.4925 33.3823 31.4348 33.3242 31.4348 33.2532V28.6773C31.4348 28.6063 31.4912 28.5482 31.5629 28.5482Z"              fill="#162125"/>        <path d="M55.9564 17.5036L50.7547 31.523C50.7137 31.6353 50.5562 31.6353 50.5152 31.523L45.3148 17.5036C45.202 17.2014 44.9151 17 44.5949 17H41.654C41.3863 17 41.2005 17.2699 41.294 17.5229L48.33 36.4875C48.3863 36.6385 48.5298 36.7393 48.6899 36.7393H52.5825C52.7426 36.7393 52.8861 36.6385 52.9425 36.4875L59.9771 17.5229C60.0706 17.2699 59.8849 17 59.6172 17H56.6775C56.356 17 56.0691 17.2001 55.9564 17.5036Z"              fill="#162125"/>        <path d="M5.75316 44.2897C6.25399 43.7733 6.897 43.5151 7.68091 43.5151C8.61724 43.5151 9.33454 43.8753 9.82896 44.5945L8.97973 45.2284C8.84396 45.0373 8.66207 44.8798 8.43663 44.7597C8.21119 44.6397 7.95886 44.579 7.68091 44.579C7.19545 44.579 6.8035 44.7365 6.50377 45.0528C6.20404 45.3692 6.05417 45.7707 6.05417 46.2588C6.05417 46.7481 6.20404 47.1497 6.50377 47.466C6.8035 47.7823 7.19545 47.9386 7.68091 47.9386C7.94733 47.9386 8.19582 47.874 8.42382 47.7449C8.6531 47.6158 8.83755 47.4557 8.97845 47.2633L9.82768 47.9218C9.33197 48.641 8.61596 48.9999 7.67962 48.9999C6.89444 48.9999 6.25143 48.7417 5.75188 48.2252C5.25105 47.7087 5 47.0528 5 46.2562C5.00128 45.4621 5.25234 44.8049 5.75316 44.2897Z"              fill="#678DBD"/>        <path d="M13.4333 48.934L15.5904 43.5809H16.3922L18.5403 48.934H17.4208L17.0775 48.0522H14.8961L14.5528 48.934H13.4333ZM16.7022 47.0812L15.9913 45.262L15.2804 47.0812H16.7022Z"              fill="#678DBD"/>        <path d="M22.3805 48.934V43.5809H24.8565C25.2868 43.5809 25.6647 43.7384 25.9888 44.0534C26.3128 44.3698 26.4742 44.7984 26.4742 45.342C26.4742 45.8856 26.3115 46.3156 25.9888 46.6319C25.6647 46.9482 25.2868 47.1057 24.8565 47.1057H23.4347V48.934H22.3805ZM23.4347 46.0676H24.6682C24.8744 46.0676 25.0524 46.0005 25.1985 45.8662C25.3458 45.7319 25.4188 45.5576 25.4188 45.3433C25.4188 45.1238 25.3458 44.9469 25.2023 44.8126C25.0576 44.6784 24.8846 44.6112 24.6835 44.6112H23.4334V46.0676H23.4347Z"              fill="#678DBD"/>        <path d="M30.478 48.934V43.5809H31.5322V48.934H30.478Z" fill="#678DBD"/>        <path d="M35.5352 43.5809H39.7762V44.5531H38.1904V48.934H37.1273V44.5531H35.5339V43.5809H35.5352Z"              fill="#678DBD"/>        <path d="M42.8568 48.934L45.0138 43.5809H45.8156L47.9637 48.934H46.8442L46.5009 48.0522H44.3195L43.9762 48.934H42.8568ZM46.1256 47.0812L45.4147 45.262L44.7038 47.0812H46.1256Z"              fill="#678DBD"/>        <path d="M51.8024 48.934V43.5809H52.8565V47.9618H55.3812V48.934H51.8024Z" fill="#678DBD"/>    </g>    <defs>        <clipPath id="clip0_1_5">            <rect width="56" height="32" fill="white" transform="translate(5 17)"/>        </clipPath>    </defs></svg>
